X:1
T:Waltz in D Major
T:Waltz in D Major
T:WoO 85
T:Ludwig van Beethoven
T:Public Domain (PianoXML typeset)
C:Ludwig van Beethoven
Z:Public Domain (PianoXML typeset)
%%score { 1 | ( 2 3 ) }
L:1/8
Q:1/8=150
M:3/8
K:D
V:1 treble nm="Piano" snm="Pno."
V:2 treble 
V:3 treble 
V:1
!p!"_dolce""^\n" A/d/ | (B/e/f/e/=c/f/) | (d/g/a/g/e/a/) | f/a/!f!d'/f/d'/f/ | d'/f/c'/e/!p! A/d/ | %5
 (B/e/f/e/=c/f/) | (d/g/a/g/e/a/) | f/a/d'/!f!f/c'/e/ | e'/g/d'/f/ ::!p! (A/a/) | %10
 (A/g/a/g/)(A/f/) | (A/e/f/e/)(A/b/) | (A/g/a/g/)(A/g/) | (A/f/g/f/)(A/a/) | (A/g/a/g/)(A/f/) | %15
 (A/e/f/e/) (A/a/) | (B/b/) (d/b/) (e/c'/) | [fd']2 :| %18
V:2
 F | G2 A | B2 ^c | [Dd] [FA][DA] | [A,A][A,A] [DF] | G2 A | B2 c | [Dd] [DA][A,A] | [DA][DA] :: %9
 F | E2 D | C2 G | F2 E | D2 F | E2 D | C2 G | [A,G] [A,G][A,G] | [DF]2 :| %18
V:3
 D | D3 | D3 | x3 | x3 | D3 | D3 | x3 | x2 :: x | A,3 | A,3 | A,3 | A,3 | A,3 | A,3 | x3 | x2 :| %18

